symbols/web/sticky_note_2/materialsymbolsrounded/sticky_note_2_wght500gradN25fill1_40px.svg

<svg xmlns="http://www.w3.org/2000/svg" height="40" width="40"><path d="M8 35.042q-1.25 0-2.146-.896-.896-.896-.896-2.146V8q0-1.25.896-2.146Q6.75 4.958 8 4.958h24q1.25 0 2.146.896.896.896.896 2.146v16.833L24.833 35.042Zm10.583-12.334q.584 0 .979-.396.396-.395.396-.979 0-.583-.396-.979-.395-.396-.979-.396h-4.916q-.584 0-.979.396-.396.396-.396.979 0 .584.396.979.395.396.979.396Zm7.75-6.5q.584 0 .979-.416.396-.417.396-1 0-.542-.396-.959-.395-.416-.979-.416H13.708q-.625 0-1.02.416-.396.417-.396.959 0 .583.396 1 .395.416 1.02.416ZM23.667 32 32 23.667h-6.833q-.625 0-1.063.437-.437.438-.437 1.063Z"/></svg>

<svg xmlns="http://www.w3.org/2000/svg" height="40" width="40"><path d="M8 35.042Q6.75 35.042 5.854 34.146Q4.958 33.25 4.958 32V8Q4.958 6.75 5.854 5.854Q6.75 4.958 8 4.958H32Q33.25 4.958 34.146 5.854Q35.042 6.75 35.042 8V24.833L24.833 35.042ZM18.583 22.708Q19.167 22.708 19.562 22.312Q19.958 21.917 19.958 21.333Q19.958 20.75 19.562 20.354Q19.167 19.958 18.583 19.958H13.667Q13.083 19.958 12.688 20.354Q12.292 20.75 12.292 21.333Q12.292 21.917 12.688 22.312Q13.083 22.708 13.667 22.708ZM26.333 16.208Q26.917 16.208 27.312 15.792Q27.708 15.375 27.708 14.792Q27.708 14.25 27.312 13.833Q26.917 13.417 26.333 13.417H13.708Q13.083 13.417 12.688 13.833Q12.292 14.25 12.292 14.792Q12.292 15.375 12.688 15.792Q13.083 16.208 13.708 16.208ZM23.667 32 32 23.667H25.167Q24.542 23.667 24.104 24.104Q23.667 24.542 23.667 25.167Z"/></svg>
